X:1
T:Suite in C Minor for Lute (trans. to A minor)
T:1. Prelude
T:Johann Sebastian Bach (1685-1750) BWV 997
T:by Mutopia 2013/02/17-50 Scritto con MuseScore, un software libero e gratuito: http://musescore.org/it 
T:by Mutopia 2013/02/17-50 Scritto con MuseScore, un software libero e gratuito: http://musescore.org/it 
Z:by Mutopia 2013/02/17-50
Z:Scritto con MuseScore, un software libero e gratuito: http://musescore.org/it
%%score ( 1 2 )
L:1/8
Q:1/4=80
M:4/4
K:C
V:1 treble-8 nm="Chitarra"
V:2 treble-8 
V:1
 z A/B/ce (^ga) z a | z A/B/ce (^ga) z a | z A/B/ce (^ga) z a | z/ g/f/e/ d/c/B/A/ (^G/A/)B/F/ Ed | %4
 (c/B/A) z/ ^G/A/B/ c/e/d/c/ f/e/d/c/ | d/f/G z/ A/B/c/ d/f/e/d/ g/f/e/d/ | %6
 e/d/e/g/ B/A/B/g/ (c/B/)c/g/ (d/c/)d/f/ | e/d/e/c/ e/B/e/A/ ^G/^F/G/^f/ G/e/G/d/ | %8
 c/B/c/e/ ac'- c'/e/^d- d/e/^f/g/ | a/c/B- B/^c/^d/e/ ^f/^G/A- A/=c/B/A/ | %10
 G/B/e/^d/ e/B/c/^A/ B/d/^f/e/ f/B/c/A/ | B/e/g/^f/ g/B/c/^A/ B/f/a- a/c/B/=A/ | %12
 G/B/e/^f/ gTf e/A/^G- G/B/c/d/ | c/F/E- E/G/A/B/ A/E/^D D/c'/b/a/ | %14
 g/a/b/e/ g/^f/e/^d/ e/g/^A A/^c/B/A/ | B/^c/^d/e/ ^fA Ge^Fd | z E/^F/ GB (^de) z e | %17
 z E/^F/ GB (^de) z e | z E/^F/ GB ^de z e | z/ d/c/B/ A/G/^F/E/ ^D/E/F/C/ B,A | %20
 G/^F/E z/ ^D/E/F/ G/A/B/G/ c/B/A/G/ | A/c/B/A/ ^G/A/B/c/ d/f/e/d/ e/d/c/B/ | %22
 c/B/A z/ ^G/A/B/ c/e/d/c/ f/e/d/c/ | d/f/e/d/ ^c/d/e/f/ g/_b/a/g/ a/g/f/e/ | %24
 (f/e/f/)a/ (^c/B/c/)a/ (d/c/d/)a/ (e/d/e/)g/ | f/e/d/e/ f/d/f/c/ _B/A/B/a/ B/g/B/f/ | %26
 e/d/c/d/ e/c/e/_B/ A/G/A/g/ A/f/A/e/ | d/c/_B/c/ d/B/d/A/ G/F/G/f/ G/e/G/d/ | %28
 ^c/B/A z/ E/F/G/ ^C/_B/A/G/ e/G/F/E/ | F/A/G/F/ d/F/E/D/ ^C/_B/A/G/ e/G/F/E/ | %30
 F/A/G/F/ d/F/E/D/ _E/F/E/D/ E/_A/G/^F/ | G/_A/G/^F/ G/_e/d/^c/ d=A g/f/T=e/d/ | %32
 df/d/ A_B z e/f/ a_b | z e/c/ ^GA z ^d/e/ ^ga | z/ g/f/e/ d/c/B/A/ ^G/A/B/F/ E/d/c/B/ | %35
 (c/B/c/)d/ (^G/^F/G/)e/ (A/G/A/)e/ (B/G/A/)e/ | c/B/A/B/ c/A/c/G/ (F/E/F/)e/ F/d/F/c/ | %37
 B/A/G/A/ B/G/B/F/ (E/D/E/)d/ E/c/E/B/ | A/G/F/G/ A/F/A/F/ (^D/^C/E/)c/ D/B/D/A/ | %39
 ^G/f/e/d/ b/f/e/d/ G/f/e/d/ b/f/e/d/ | ^c/_B/A/G/ e/B/A/G/ ^C/B/A/G/ e/B/A/G/ | %41
 ^F/_e/d/c/ a/e/d/c/ F/e/d/c/ a/e/d/c/ | B/_A/G/F/ d/A/G/F/ B,/A/G/F/ d/A/G/F/ | %43
 E/_d/c/_B/ g/d/c/G/ E/d/c/B/ g/d/c/B/ | A/G/A/^c/ df- f/A/^G- G/A/B/=c/ | %45
 d/F/E- E/^F/^G/A/ B/^C/D- D/=F/E/D/ | C/E/A/^G/ A/E/F/^D/ E/G/B/A/ B/E/F/D/ | %47
 E/A/c/B/ c/E/F/^D/ E/B/d- d/f/e/d/ | c/e/a/b/ c'Tb a/d/^c- c/e/f/g/ | %49
 f/_B/A- A/c/d/e/ d/A/^G- G/f/e/d/ | c/d/c/B/ c/f/e/^d/ e/f/e/d/ e/_b/a/^g/ | %51
 ae d'/c'/b/a/ a/b/c'/a/ c'/b/a/g/ | ^f/g/a/f/ a/g/f/e/ [B^da]2 z2 | %53
 [Be^g]2 z/ e/^f/g/ a/b/c'/d'/ e'/d'/f'/e'/ | d'/c'/b/a/ ^g/f/e/d/ caBTg | [cea]2 z2 z4 |] %56
V:2
 A,2 z2 z2 G2 | F2 z2 z2 E2 | D2 z2 z2 C2 | D2 z2 E,2 z2 | A,2 C2 F2 A,2 | B,2 D2 G2 B,2 | %6
 C2 F2 E2 G2 | C2 C2 B,2 E,2 | A,2 G2 ^F2 E2 | ^D2 ^F2 D2 B,2 | E2 B,2 ^D2 B,2 | E2 B,2 ^D2 B,2 | %12
 ECA,B, C2 B,2 | A,2 G,2 ^F,2 B,2 | E,G,A,B, CEG^C | ^D^FDB, ECA,B, | E,2 z2 z2 D2 | C2 z2 z2 B,2 | %18
 A,2 z2 z2 G,2 | A,2 z2 B,2 z2 | E,2 G,2 C2 E,2 | F,2 D2 B,2 ^G,2 | A,2 C2 F2 A,2 | B,2 G2 E2 ^C2 | %24
 D2 G2 F2 A,2 | D2 D2 G,FED | C2 C2 F,EDC | _B,A,G,F, E,D^CE | A,2 A,2 E,2 ^C2 | A,2 A,2 E,2 ^C2 | %30
 D2 F,2 G,2 z A, | _B,2 z E =FDAA, | D2 z D/^C/ D2 z D | C2 z C/B,/ C2 z C | B,2 z2 E,2 z2 | %35
 A,2 D2 C2 E2 | A,2 A,2 DCB,A, | G,2 G,2 CB,A,G, | F,E,DC B,A,^F,B, | E,2 E,2 E,2 z2 | %40
 A,2 A,2 A,2 z2 | D2 D2 D2 z2 | G,2 G,2 G,2 z2 | C2 C2 C2 z2 | F,2 F2 B,2 D2 | ^G,2 B,2 E,2 G,2 | %46
 A,2 E,2 ^G,2 E,2 | A,2 E,2 ^G,2 E,2 | A,FDE F2 E2 | D2 C2 B,2 E,2 | A,2 z B, A,2 z D | %51
 CA,EE [^F^d]2 z2 | [Ac]2 z2 B,2 z2 | D2 z2 [CE]2 z2 | [^GBe]2 z2 AFDE | [A,A]2 x6 |] %56

